X:1
T:O Magnum Mysterium
T:Estêvão Lopes Morago edit BMarble (suggested accidentals)
T:O Magnum Mysterium
T:Copyright © 2015 by The Choral Public Domain Library. Edition may be freely distributed, duplicated, performed or recorded.
T:Copyright © 2015 by The Choral Public Domain Library. Edition may be freely distributed, duplicated, performed or recorded.
T:Copyright © 2015 by The Choral Public Domain Library. Edition may be freely distributed, duplicated, performed or recorded.
T:Copyright © 2015 by The Choral Public Domain Library. Edition may be freely distributed, duplicated, performed or recorded.
T:Copyright © 2015 by The Choral Public Domain Library. Edition may be freely distributed, duplicated, performed or recorded.
C:Estêvão Lopes Morago
C:edit BMarble
C:(suggested accidentals)
Z:Copyright © 2015 by The Choral Public Domain Library. Edition may be freely distributed, duplicated, performed or recorded.
%%score [ 1 2 3 4 ]
L:1/8
Q:1/2=100
M:4/2
K:F
V:1 treble nm="Soprano" snm="S."
V:2 treble nm="Alto" snm="A."
V:3 treble-8 transpose=-12 nm="Tenor" snm="T."
V:4 bass nm="Bass" snm="B."
V:1
 D8 F4 G4 | A8 B8- | B4 G4 G8 | z4 d4 _e8 | d4 d4 c6 c2 ||[M:3/2] =B8 c4 || %6
w: O ma- gnum|my- ste-|* ri- um,|O ma-|gnum my- ste- ri-|um et|
[M:3/1] c4 _B4 B6 B2 B4 A4 ||[M:3/2] G4 A2 B4 A2 | B8 d4 ||[M:3/1] c4 c4 d8 c8 ||[M:3/2] d12 | %11
w: ad- mi- ra- bi- le sa-|cra- men- * *|tum. Ut|a- ni- ma- li-|a|
 z4 A8 | c4 c4 c4- | c4 B4 c4 | d12 | c12 | z4 c8- | c4 B4 c4 | d12- | d4 c8 | B4 A8 | =B8 G4 || %22
w: vi-|de- runt Do-|* mi- num|na-|tum,|Do-|* mi- num|na-|||tum ja-|
[M:3/1] A4 A4 A8 G8 | G16 ^F8 ||[M:3/2] ^F12 ||[M:3/2]S z4 A8 | B8 G4 | A12 | A4 A4 A4 || %29
w: cen- tum in prae-|se- pi-|o.|Be-|a- ta|Vir-|go, cu- jus|
[M:3/1] B4 B4 B8 A4 A4 | G16 ^F8 | G8 G8 ^F8 | G12 z4 d4 d4 ||[M:3/2] _e4 e4 e4- | e4 d4 c4 | %35
w: vi- sce- ra me- ru-|e- runt,|me- ru- e-|runt, cu- jus|vi- sce- ra|_ me- ru-|
 =B4 c8- | c4 =B8 ||[M:3/1]"^rit." c4 G4 A8 B8 | G6 G2 ^F4 G12 | ^F24!fine! |] %40
w: e- *||runt por- ta- re|Do- mi- num Chri-|stum.|
[M:4/2][Q:1/2=88] (A12 G4) | A4 A4 B8 | A8 z4 A4- | A2 A2 G4 (F4 E4 | D8 E8) | D4 d6 d2 c4 | %46
w: A- *|ve Ma- ri-|a, gra-|* ti- a ple- *||na: Do- mi- nus|
 B2 A2 A8 G4!D.S.! |[M:2/2] A8 |] %48
w: te- * * *|cum.|
V:2
 z16 | D8 B,4 G,4 | D4 (_E4 D4 C4-) | C4 _B,4 G,4 G4 | G12 F4 ||[M:3/2] G8 G4 || %6
w: |O ma- gnum|my- ste- * *|* ri- um, my-|ste- ri-|um et|
[M:3/1] =A4 F4 G6 G2 G4 F4 ||[M:3/2] E4 F8 | F8 F4 ||[M:3/1] F4 F4 F8 G8 ||[M:3/2] ^F8 D4 | %11
w: ad- mi- ra- bi- le sa-|cra- men-|tum. Ut|a- ni- ma- li-|a vi-|
 =F4 F4 F4- | F4 E4 F4 | G12 | F12 | z4 F8- | F4 G4 A4 | (D8 E4) | F4 F8- | F4 !courtesy!_E4 E4 | %20
w: de- runt Do-|* mi- num|na-|tum,|Do-|* mi- num|na- *|tum Do-|* mi- num|
 D12 | D8 D4 ||[M:3/1] F4 F4 F8 D8 | (C4 B,4 C8) D8 ||[M:3/2] D12 ||[M:3/2] z4 ^F8 | G8 D4 | (E12 | %28
w: na-|tum ja-|cen- tum in prae-|se- * * pi-|o.|Be-|a- ta|Vir-|
 ^F12) ||[M:3/1] G12 z4 D4 D4 | _E4 E4 E8 D4 D4 | D12 D12 | (B,4 G,4 G8) ^F8 ||[M:3/2] G12- | %34
w: |go, cu- jus|vi- sce- ra me- ru-|e- runt,|me- * * ru-|e-|
 G12- | G12- | G12 ||[M:3/1] =E4 D4 F8 F8 | _E6 E2 D8 C8 | D24 |][M:4/2] (=F6 E2 D8) | E4 ^F4 G8 | %42
w: |||runt por- ta- re|Do- mi- num Chri-|stum.|A- * *|ve Ma- ri-|
 ^F4 =F6 F2 E4 | (D12 C4 | B,8) A,4 A4- | A2 A2 G4 F4 E4 | (F6 E2 D2 C2 D4) |[M:2/2] E8 |] %48
w: a, gra- ti- a|ple- *|* na: Do-|* mi- nus te- cum,|te- * * * *|cum.|
V:3
 z16 | z8 G8 | B4 c4 d4 _e4- | e4 d6 c2 c4- | c4 =B4 c6 c2 ||[M:3/2] d8 =e4 || %6
w: |O|ma- gnum my- ste-||* * * ri-|um et|
[M:3/1] f4 d4 _e6 e2 e4 c4 ||[M:3/2] B4 c8 | B8 B4 ||[M:3/1] A4 A4 A8 G8 ||[M:3/2] A12- | A12 | %12
w: ad- mi- ra- bi- le sa-|cra- men-|tum. Ut|a- ni- ma- li-|a|_|
 z12 | z4 G8 | B4 B4 B4- | B4 A4 B4 | (c6 B2 A4 | G12) | A4 B8- | B4 G4 G4- | G4 ^F8 | %21
w: |vi-|de- runt Do-|* mi- num|na- * *||tum, Do-|* mi- num|_ na-|
 G8 !courtesy!=B4 ||[M:3/1] c4 c4 c8 _B8 | G16 A8 ||[M:3/2] A12 ||[M:3/2] z4 d8 | d8 d4- | d4 ^c8 | %28
w: tum ja-|cen- tum in prae-|se- pi-|o.|Be-|a- ta|_ Vir-|
 d12- ||[M:3/1] d8 z8 z8 | z8 z8 A4 A4 | B4 B4 B8 A4 A4 | G16 A8 ||[M:3/2] c12- | (c4 =B4 c4 | %35
w: go,|_|cu- jus|vi- sce- ra me- ru-|e- runt,|me-||
 d4) _e8 | d12 ||[M:3/1] c4 !courtesy!=B4 c8 d8 | c6 c2 A4 G12 | A24 |][M:4/2] (d6 c2 B8) | %41
w: * ru-|e-|runt por- ta- re|Do- mi- num Chri-|stum.|A- * *|
 A4 A4 G8 | d4 d6 d2 c4 | B8 A8 | z4 d6 d2 c4 | B8 A8 | (d6 c2 B2 A2 B4) |[M:2/2] A8 |] %48
w: ve Ma- ri-|a, gra- ti- a|ple- na:|Do- mi- nus|te- cum,|te- * * * *|cum.|
V:4
 z16 | z16 | G,16- | G,8 _E,4 C,4 | G,8 _A,6 A,2 ||[M:3/2] G,8 C4 || %6
w: ||O|_ ma- gnum|my- ste- ri-|um et|
[M:3/1] F,4 B,4 _E,6 E,2 E,4 F,4 ||[M:3/2] G,4 F,8 | B,,8 B,,4 ||[M:3/1] F,4 F,4 F,8 _E,8 || %10
w: ad- mi- ra- bi- le sa-|cra- men-|tum. Ut|a- ni- ma- li-|
[M:3/2] D,12- | D,12 | z12 | z12 | z4 D,8 | F,4 F,4 F,4- | F,4 E,4 F,4 | (G,6 F,2 E,4) | %18
w: a|_|||vi-|de- runt Do-|* mi- num|na- * *|
 D,4 B,,8- | B,,4 C,4 C,4 | D,12 | G,,8 G,4 ||[M:3/1] F,4 F,4 F,8 G,8 | _E,16 D,8 ||[M:3/2] D,12 || %25
w: tum, Do-|* mi- num|na-|tum ja-|cen- tum in prae-|se- pi-|o.|
[M:3/2] z4 D,8 | G,8 B,4 | A,12 | D,4 D,4 D,4 ||[M:3/1] G,4 G,4 G,8 =F,4 F,4 | (_E,6 D,2 C,8 D,8) | %31
w: Be-|a- ta|Vir-|go, cu- jus|vi- sce- ra me- ru-|e- * * *|
 G,,16 D,4 D,4 | _E,4 E,4 E,8 D,4 D,4 ||[M:3/2] (C,6 D,2 _E,2 F,2 | G,12-) | G,12- | G,12 || %37
w: runt, cu- jus|vi- sce- ra me- ru-|e- * * *||||
[M:3/1] C,4 G,4 F,8 B,,8 | C,6 C,2 D,4 _E,12 | D,24 |][M:4/2] z16 | z16 | z16 | z16 | z16 | z16 | %46
w: runt, por- ta- re|Do- mi- num Chri-|stum.|||||||
 z16 |[M:2/2] z8 |] %48
w: ||

